public/assets/img/icons/infrastructure.svg

<svg id="eVcJI6eKh7g1" xmlns="http://www.w3.org/2000/svg" xmlns:xlink="http://www.w3.org/1999/xlink" viewBox="0 0 57 60" shape-rendering="geometricPrecision" text-rendering="geometricPrecision" project-id="19847451219745c5a91667f4467473b3" export-id="25ec68ad182d40a98132f64d852cf0ed" cached="false">
<style><![CDATA[
#eVcJI6eKh7g5 {animation: eVcJI6eKh7g5_s_do 4000ms linear infinite normal forwards}@keyframes eVcJI6eKh7g5_s_do { 0% {stroke-dashoffset: 43.28} 25% {stroke-dashoffset: 0} 100% {stroke-dashoffset: 0}} #eVcJI6eKh7g6 {animation: eVcJI6eKh7g6_s_do 4000ms linear infinite normal forwards}@keyframes eVcJI6eKh7g6_s_do { 0% {stroke-dashoffset: 43.28} 25% {stroke-dashoffset: 0} 100% {stroke-dashoffset: 0}} #eVcJI6eKh7g7 {animation-name: eVcJI6eKh7g7_c_o, eVcJI6eKh7g7_f_o;animation-duration: 4000ms;animation-fill-mode: forwards;animation-timing-function: linear;animation-direction: normal;animation-iteration-count: infinite;}@keyframes eVcJI6eKh7g7_c_o { 0% {opacity: 0} 25% {opacity: 0} 50% {opacity: 1} 100% {opacity: 1}}@keyframes eVcJI6eKh7g7_f_o { 0% {fill-opacity: 0} 25% {fill-opacity: 0} 50% {fill-opacity: 1} 100% {fill-opacity: 1}} #eVcJI6eKh7g8 {animation: eVcJI6eKh7g8_s_do 4000ms linear infinite normal forwards}@keyframes eVcJI6eKh7g8_s_do { 0% {stroke-dashoffset: 43.53} 37.5% {stroke-dashoffset: 43.53} 50% {stroke-dashoffset: 0} 100% {stroke-dashoffset: 0}} #eVcJI6eKh7g9 {animation: eVcJI6eKh7g9_s_do 4000ms linear infinite normal forwards}@keyframes eVcJI6eKh7g9_s_do { 0% {stroke-dashoffset: 28.72} 25% {stroke-dashoffset: 28.72} 37.5% {stroke-dashoffset: 0} 100% {stroke-dashoffset: 0}} #eVcJI6eKh7g10 {animation: eVcJI6eKh7g10_s_do 4000ms linear infinite normal forwards}@keyframes eVcJI6eKh7g10_s_do { 0% {stroke-dashoffset: 22.84} 50% {stroke-dashoffset: 22.84} 62.5% {stroke-dashoffset: 0} 100% {stroke-dashoffset: 0}} #eVcJI6eKh7g11 {animation: eVcJI6eKh7g11_s_do 4000ms linear infinite normal forwards}@keyframes eVcJI6eKh7g11_s_do { 0% {stroke-dashoffset: 29.91} 62.5% {stroke-dashoffset: 29.91} 75% {stroke-dashoffset: 0} 100% {stroke-dashoffset: 0}}
]]></style>
<g clip-path="url(#eVcJI6eKh7g12)"><g><path d="M51.5092,59.1262h-47.94c-1.91899,0-3.221583-1.9339-2.50051-3.7165L15.9322,18.4427c.4071-1.0252,1.4073-1.6893,2.5005-1.6893h18.0618c1.0933,0,2.0935.6641,2.5005,1.6893L53.9981,55.4214c.7211,1.7825-.5815,3.7281-2.5005,3.7281l.0116-.0233Z" fill="none" stroke="#ee3524" stroke-width="1.5" stroke-linecap="round" stroke-linejoin="round"/><path id="eVcJI6eKh7g5" d="M21.7388,16.9397L10.5039,58.73" fill="none" stroke="#ee3524" stroke-width="1.5" stroke-linecap="round" stroke-linejoin="round" stroke-dashoffset="43.28" stroke-dasharray="43.28"/><path id="eVcJI6eKh7g6" d="M43.8911,58.73L32.6562,16.9397" fill="none" stroke="#ee3524" stroke-width="1.5" stroke-linecap="round" stroke-linejoin="round" stroke-dashoffset="43.28" stroke-dasharray="43.28"/><path id="eVcJI6eKh7g7" d="M27.3438,16.9397v41.5806" opacity="0" fill="none" fill-opacity="0" stroke="#ee3524" stroke-width="1.5" stroke-linecap="round" stroke-linejoin="round" stroke-dasharray="4,4"/><path id="eVcJI6eKh7g8" d="M49.2091,14.7379c3.8218,0,6.92-3.1036,6.92-6.93208s-3.0982-6.932041-6.92-6.932041-6.92,3.103581-6.92,6.932041s3.0982,6.93208,6.92,6.93208Z" fill="none" stroke="#ee3524" stroke-width="1.5" stroke-linecap="round" stroke-linejoin="round" stroke-dashoffset="43.53" stroke-dasharray="43.53"/><path id="eVcJI6eKh7g9" d="M49.209999,42.013947v-27.981047" transform="translate(-.000899 0.825605)" fill="none" stroke="#ee3524" stroke-width="1.5" stroke-linecap="round" stroke-linejoin="round" stroke-dashoffset="28.72" stroke-dasharray="28.72"/><path id="eVcJI6eKh7g10" d="M11.4102,6.96704v22.83496" transform="matrix(1 0 0-.916534 0 35.23456)" fill="none" stroke="#ee3524" stroke-width="1.5" stroke-linecap="round" stroke-linejoin="round" stroke-dashoffset="22.84" stroke-dasharray="22.84"/><path id="eVcJI6eKh7g11" d="M16.6207,2.28345h-10.32773v4.62524h10.32773v-4.62524Z" fill="none" stroke="#ee3524" stroke-width="1.5" stroke-linecap="round" stroke-linejoin="round" stroke-dashoffset="29.91" stroke-dasharray="29.91"/></g><clipPath id="eVcJI6eKh7g12"><rect width="57" height="60" rx="0" ry="0" fill="#fff"/></clipPath></g></svg>

<svg width="57" height="60" viewBox="0 0 57 60" fill="none" xmlns="http://www.w3.org/2000/svg">
<g clip-path="url(#clip0_614_1002)">
<path d="M51.5092 59.1262H3.5692C1.65021 59.1262 0.347617 57.1923 1.06869 55.4097L15.9322 18.4427C16.3393 17.4175 17.3395 16.7534 18.4327 16.7534H36.4945C37.5878 16.7534 38.588 17.4175 38.995 18.4427L53.9981 55.4214C54.7192 57.2039 53.4166 59.1495 51.4976 59.1495L51.5092 59.1262Z" stroke="#EE3524" stroke-width="1.5" stroke-linecap="round" stroke-linejoin="round"/>
<path d="M21.7388 16.9397L10.5039 58.73" stroke="#EE3524" stroke-width="1.5" stroke-linecap="round" stroke-linejoin="round"/>
<path d="M43.8911 58.73L32.6562 16.9397" stroke="#EE3524" stroke-width="1.5" stroke-linecap="round" stroke-linejoin="round"/>
<path d="M27.3438 16.9397V58.5203" stroke="#EE3524" stroke-width="1.5" stroke-linecap="round" stroke-linejoin="round" stroke-dasharray="4 4"/>
<path d="M49.2091 14.7379C53.0309 14.7379 56.1291 11.6343 56.1291 7.80582C56.1291 3.97736 53.0309 0.873779 49.2091 0.873779C45.3873 0.873779 42.2891 3.97736 42.2891 7.80582C42.2891 11.6343 45.3873 14.7379 49.2091 14.7379Z" stroke="#EE3524" stroke-width="1.5" stroke-linecap="round" stroke-linejoin="round"/>
<path d="M49.207 14.7378V43.4562" stroke="#EE3524" stroke-width="1.5" stroke-linecap="round" stroke-linejoin="round"/>
<path d="M11.4102 6.96704V29.802" stroke="#EE3524" stroke-width="1.5" stroke-linecap="round" stroke-linejoin="round"/>
<path d="M16.6207 2.28345H6.29297V6.90869H16.6207V2.28345Z" stroke="#EE3524" stroke-width="1.5" stroke-linecap="round" stroke-linejoin="round"/>
</g>
<defs>
<clipPath id="clip0_614_1002">
<rect width="57" height="60" fill="white"/>
</clipPath>
</defs>
</svg>
